X:118
T:Hornpipe. Le4.118
M:C|
L:1/8
Q:1/4=130
B:L.Leadley MS#4 c1850
Z:Village Music Project, 2016 Ruairidh Greig
K:A
(cBN).c.d (3efe (3dcB|Aaga fedc|defd ceac|Bcde dcBA|
(cB).c.d (3efe (3dcB|Aaga fedc|defd ceaA|FAGBA2:|
|:e|e^def bgec|defg aeBe|agae fede|edcB AGFE|
cBcd (3efe (3dcB|Aaga fedc|defd ceaA|FAGBA2:|

